X: 27495
T: Molly What Ails You?
R: reel
M: 4/4
K: Dmajor
|A3F ABde|fdgf edBd|A2AF ABde|fged d2dB|
ABAF ABde|f~d3 edBd|A2AF ABde|fgec d2de||
faaf gbbg|afef d~B3|faaf gbbg|afef d2de|
faaf gbbg|afef dBBd|A2AF ABde|fgec d2FG||

